svgs/light/image-slash.svg

<svg xmlns="http://www.w3.org/2000/svg" viewBox="0 0 640 512"><!--! Font Awesome Pro 6.0.0-alpha3 by @fontawesome - https://fontawesome.com License - https://fontawesome.com/license (Commercial License) --><path d="M633.9 483.4L25.92 3.42c-6.938-5.453-17-4.25-22.48 2.641c-5.469 6.938-4.281 17 2.641 22.48l608 480C617 510.9 620.5 512 623.1 512c4.734 0 9.422-2.094 12.58-6.078C642 498.1 640.8 488.9 633.9 483.4zM512 64c17.64 0 32 14.36 32 32v255.3l32 25.26L575.1 96c0-35.35-28.65-64-64-64H139.6l40.53 32H512zM337.7 157.8l-13.31 20.12l24.03 18.97l13.81-21.4l44.76 67.65l80.35 63.43l-98.41-148.7C377.6 140.5 349 140.5 337.7 157.8zM200.2 242.1l-66.4 92.04c-6.797 9.406-7.75 21.72-2.547 32C136.5 377.5 147 384 158.8 384h220.1l-40.53-32H159.8l64.36-90.13L200.2 242.1zM459.9 448H128c-17.64 0-32-14.36-32-32V160.7L64 135.4L63.99 416c0 35.35 28.65 64 64 64h372.5L459.9 448z"/></svg>

<svg xmlns="http://www.w3.org/2000/svg" viewBox="0 0 640 512"><!-- Font Awesome Pro 6.0.0-alpha2 by @fontawesome - https://fontawesome.com License - https://fontawesome.com/license (Commercial License) --><path d="M633.923 483.436L25.921 3.42C18.984 -2.033 8.921 -0.83 3.437 6.061C-2.032 12.998 -0.845 23.061 6.077 28.545L614.079 508.562C617.017 510.875 620.517 512 623.985 512C628.72 512 633.407 509.906 636.564 505.922C642.032 498.984 640.845 488.92 633.923 483.436ZM512.001 64C529.646 64 544.001 78.355 544.001 96V351.279L576.001 376.543V96C576.001 60.654 547.347 32 512.001 32H139.593L180.124 64H512.001ZM337.704 157.781L324.394 177.9L348.427 196.873L362.235 175.469L406.997 243.115L487.345 306.549L388.939 157.844C377.564 140.469 349.048 140.531 337.704 157.781ZM200.245 242.99L133.845 335.031C127.048 344.437 126.095 356.75 131.298 367.031C136.532 377.5 147.048 384 158.751 384H378.853L360.114 369.207L338.319 352H159.798L224.157 261.869L200.245 242.99ZM459.915 448H128.001C110.357 448 96.001 433.645 96.001 416V160.689L64.001 135.426V416C64.001 451.346 92.655 480 128.001 480H500.448L496.675 477.021L459.915 448Z"/></svg>
